raw-svg/clipboard.svg

<svg fill="none" height="24" viewBox="0 0 24 24" width="24" xmlns="http://www.w3.org/2000/svg"><path clip-rule="evenodd" d="m11.2231 4.75c-.5374 0-.9731.43566-.9731.97308v1.46538h3.5v-1.46538c0-.53742-.4357-.97308-.9731-.97308zm3.9111.22308h.8658c1.5188 0 2.75 1.23121 2.75 2.75v10.27692c0 1.5188-1.2312 2.75-2.75 2.75h-8c-1.51878 0-2.75-1.2312-2.75-2.75v-10.27692c0-1.51878 1.23122-2.75 2.75-2.75h.86577c.31762-.99918 1.25293-1.72308 2.35733-1.72308h1.5538c1.1044 0 2.0397.7239 2.3573 1.72308zm.1158 1.5v1.36538c0 .46944-.3806.85-.85.85h-4.8c-.46944 0-.85-.38056-.85-.85v-1.36538h-.75c-.69036 0-1.25.55964-1.25 1.25v10.27692c0 .6904.55964 1.25 1.25 1.25h8c.6904 0 1.25-.5596 1.25-1.25v-10.27692c0-.69036-.5596-1.25-1.25-1.25z" fill="#000" fill-rule="evenodd"/></svg>

<svg width="24" height="24" viewBox="0 0 24 24" fill="none" xmlns="http://www.w3.org/2000/svg">
<path fill-rule="evenodd" clip-rule="evenodd" d="M11.2231 4.75C10.6857 4.75 10.25 5.18566 10.25 5.72308V7.18846H13.75V5.72308C13.75 5.18566 13.3143 4.75 12.7769 4.75H11.2231ZM15.1342 4.97308H16C17.5188 4.97308 18.75 6.20429 18.75 7.72308V18C18.75 19.5188 17.5188 20.75 16 20.75H8C6.48122 20.75 5.25 19.5188 5.25 18V7.72308C5.25 6.2043 6.48122 4.97308 8 4.97308H8.86577C9.18339 3.9739 10.1187 3.25 11.2231 3.25H12.7769C13.8813 3.25 14.8166 3.9739 15.1342 4.97308ZM15.25 6.47308V7.83846C15.25 8.3079 14.8694 8.68846 14.4 8.68846H9.6C9.13056 8.68846 8.75 8.3079 8.75 7.83846V6.47308H8C7.30964 6.47308 6.75 7.03272 6.75 7.72308V18C6.75 18.6904 7.30964 19.25 8 19.25H16C16.6904 19.25 17.25 18.6904 17.25 18V7.72308C17.25 7.03272 16.6904 6.47308 16 6.47308H15.25Z" fill="black"/>
</svg>
